src/assets/svgs/duolingo.svg

<svg viewBox="0 0 120 120" fill="none" xmlns="http://www.w3.org/2000/svg"><rect width="120" height="120" fill="#50C800"/><path fill-rule="evenodd" clip-rule="evenodd" d="M120.004 77.5198V42.8089C118.645 39.4925 116.641 36.5042 114.156 33.9964C114.379 30.2698 113.547 26.4964 111.613 23.1331C110.348 20.93 107.289 20.6136 105.578 22.512L101.699 26.8128C101.676 26.8011 101.652 26.8011 101.629 26.7894C102.133 22.8636 101.465 18.8089 99.543 15.1878C98.3476 12.9378 95.7578 12.5394 93.9765 14.3675L75.3437 33.2464C75.1328 33.4456 74.9101 33.6565 74.6992 33.8675C74.6875 33.8792 74.6641 33.8909 74.6523 33.9026C66.5547 41.2386 53.9336 41.5433 46.2226 34.805C45.7422 34.2776 45.2383 33.7737 44.7109 33.2815L26.043 14.3792C24.2617 12.5511 21.6719 12.9495 20.4766 15.1995C18.5664 18.8089 17.8867 22.8401 18.3789 26.7425C18.3437 26.7542 18.3086 26.7542 18.2734 26.7659L14.4414 22.512C12.7305 20.6136 9.67187 20.93 8.39453 23.1331C6.49609 26.4261 5.66406 30.1175 5.83984 33.7737C3.39062 36.1878 1.39844 39.0706 -0.0078125 42.2698V78.0706C4.19922 87.6683 13.7852 94.3831 24.9297 94.3831H26.125C37.1758 94.3831 46.6914 87.7854 50.9453 78.3167C55.0352 78.2933 58 78.2815 59.8398 78.2815C63.8242 78.2698 66.9297 78.2698 69.1562 78.2698C73.3984 87.762 82.9375 94.3831 94 94.3831H94.8437C106.199 94.3831 115.926 87.4105 120.004 77.5198Z" fill="#8EE000"/><path fill-rule="evenodd" clip-rule="evenodd" d="M26.6172 35.625C37.0703 35.625 45.5547 44.0977 45.5547 54.5625V65.7773C45.5547 76.2305 37.082 84.7149 26.6172 84.7149C16.1641 84.7149 7.67969 76.2422 7.67969 65.7773V54.5625C7.67969 44.0977 16.1641 35.625 26.6172 35.625Z" fill="white"/><path fill-rule="evenodd" clip-rule="evenodd" d="M93.1445 35.625C103.598 35.625 112.082 44.0977 112.082 54.5625V65.7773C112.082 76.2305 103.609 84.7149 93.1445 84.7149C82.6914 84.7149 74.207 76.2422 74.207 65.7773V54.5625C74.207 44.0977 82.6797 35.625 93.1445 35.625Z" fill="white"/><path fill-rule="evenodd" clip-rule="evenodd" d="M29.5352 46.5005C34.4922 46.5005 38.5234 50.52 38.5234 55.4888V65.0864C38.5234 70.0434 34.5039 74.0747 29.5352 74.0747C24.5781 74.0747 20.5469 70.0552 20.5469 65.0864V55.4888C20.5469 50.52 24.5781 46.5005 29.5352 46.5005Z" fill="#4B4B4B"/><path fill-rule="evenodd" clip-rule="evenodd" d="M60.0046 68.2881C65.6882 68.2881 70.2937 72.8936 70.2937 78.5772V82.1514C70.2937 87.835 65.6882 92.4405 60.0046 92.4405C54.321 92.4405 49.7156 87.835 49.7156 82.1514V78.5772C49.7156 72.8936 54.321 68.2881 60.0046 68.2881Z" fill="#F48000"/><path d="M45.8015 79.5615C47.032 72.999 53.114 68.2646 60.3914 68.2646C67.0124 68.2646 73.0007 73.1162 74.2078 79.5615V80.0889C74.2078 80.499 74.0671 80.6631 73.6921 80.6162L60.4031 82.9834C60.0398 82.9834 59.9929 82.9834 59.6179 82.9834L46.3171 80.6045C45.9421 80.6514 45.8015 80.4873 45.8015 80.0772V79.5615Z" fill="#FFC200"/><path fill-rule="evenodd" clip-rule="evenodd" d="M57.825 70.5381C58.5164 70.374 59.2313 70.2803 59.9461 70.2803C60.7079 70.2803 61.4813 70.374 62.243 70.5732C63.7899 70.9717 64.868 72.3662 64.868 73.96C64.868 75.249 63.825 76.2803 62.5477 76.2803H57.4618C56.1727 76.2803 55.1414 75.2373 55.1414 73.96C55.1297 72.3428 56.243 70.9248 57.825 70.5381Z" fill="#FFE747"/><path fill-rule="evenodd" clip-rule="evenodd" d="M90.2266 46.5005C95.1836 46.5005 99.2149 50.52 99.2149 55.4888V65.0864C99.2149 70.0434 95.1953 74.0747 90.2266 74.0747C85.2695 74.0747 81.2383 70.0552 81.2383 65.0864V55.4888C81.25 50.52 85.2695 46.5005 90.2266 46.5005Z" fill="#4B4B4B"/><path d="M21.9414 57.3989C25.1451 57.3989 27.7422 54.8123 27.7422 51.6216C27.7422 48.4308 25.1451 45.8442 21.9414 45.8442C18.7377 45.8442 16.1406 48.4308 16.1406 51.6216C16.1406 54.8123 18.7377 57.3989 21.9414 57.3989Z" fill="white"/><path d="M81.7537 57.3989C84.9573 57.3989 87.5544 54.8123 87.5544 51.6216C87.5544 48.4308 84.9573 45.8442 81.7537 45.8442C78.55 45.8442 75.9529 48.4308 75.9529 51.6216C75.9529 54.8123 78.55 57.3989 81.7537 57.3989Z" fill="white"/></svg>

<svg xmlns="http://www.w3.org/2000/svg" fill="none" viewBox="0 0 120 120"><path fill="#50C800" d="M0 0h120v120H0z"/><path fill="#8EE000" fill-rule="evenodd" d="M120.004 77.52V42.809a27.2 27.2 0 0 0-5.848-8.813c.223-3.726-.609-7.5-2.543-10.863-1.265-2.203-4.324-2.52-6.035-.621l-3.879 4.3c-.023-.01-.047-.01-.07-.023.504-3.925-.164-7.98-2.086-11.601-1.195-2.25-3.785-2.649-5.567-.82L75.345 33.246c-.211.2-.434.41-.645.621-.011.012-.035.024-.047.036-8.097 7.336-20.718 7.64-28.43.902a26 26 0 0 0-1.511-1.523L26.043 14.379c-1.781-1.828-4.371-1.43-5.566.82a19.44 19.44 0 0 0-2.098 11.544c-.035.011-.07.011-.106.023l-3.832-4.254c-1.71-1.898-4.77-1.582-6.046.621a19.4 19.4 0 0 0-2.555 10.64A27.4 27.4 0 0 0-.008 42.27v35.8C4.2 87.669 13.785 94.384 24.93 94.384h1.195c11.05 0 20.566-6.598 24.82-16.066q6.135-.035 8.895-.035c3.984-.012 7.09-.012 9.316-.012C73.398 87.762 82.937 94.383 94 94.383h.844c11.355 0 21.082-6.972 25.16-16.863" clip-rule="evenodd"/><path fill="#fff" fill-rule="evenodd" d="M26.617 35.625c10.453 0 18.938 8.473 18.938 18.938v11.214c0 10.454-8.473 18.938-18.938 18.938-10.453 0-18.937-8.473-18.937-18.938V54.562c0-10.464 8.484-18.937 18.937-18.937M93.145 35.625c10.453 0 18.937 8.473 18.937 18.938v11.214c0 10.454-8.473 18.938-18.937 18.938-10.454 0-18.938-8.473-18.938-18.938V54.562c0-10.464 8.473-18.937 18.938-18.937" clip-rule="evenodd"/><path fill="#4B4B4B" fill-rule="evenodd" d="M29.535 46.5c4.957 0 8.988 4.02 8.988 8.989v9.597c0 4.957-4.02 8.989-8.988 8.989-4.957 0-8.988-4.02-8.988-8.989V55.49c0-4.969 4.031-8.988 8.988-8.988" clip-rule="evenodd"/><path fill="#F48000" fill-rule="evenodd" d="M60.005 68.288c5.683 0 10.289 4.606 10.289 10.29v3.573c0 5.684-4.606 10.29-10.29 10.29s-10.288-4.606-10.288-10.29v-3.574c0-5.683 4.605-10.289 10.289-10.289" clip-rule="evenodd"/><path fill="#FFC200" d="M45.802 79.562c1.23-6.563 7.312-11.297 14.59-11.297 6.62 0 12.609 4.851 13.816 11.296v.528c0 .41-.14.574-.516.527l-13.289 2.367h-.785l-13.3-2.379c-.376.047-.517-.117-.517-.527z"/><path fill="#FFE747" fill-rule="evenodd" d="M57.825 70.538a9.2 9.2 0 0 1 2.121-.258 9 9 0 0 1 2.297.293 3.5 3.5 0 0 1 2.625 3.387 2.32 2.32 0 0 1-2.32 2.32h-5.086a2.32 2.32 0 0 1-2.32-2.32 3.51 3.51 0 0 1 2.683-3.422" clip-rule="evenodd"/><path fill="#4B4B4B" fill-rule="evenodd" d="M90.227 46.5c4.957 0 8.988 4.02 8.988 8.989v9.597c0 4.957-4.02 8.989-8.988 8.989-4.958 0-8.989-4.02-8.989-8.989V55.49c.012-4.969 4.031-8.988 8.989-8.988" clip-rule="evenodd"/><path fill="#fff" d="M21.941 57.399c3.204 0 5.801-2.587 5.801-5.777s-2.597-5.778-5.8-5.778c-3.204 0-5.801 2.587-5.801 5.778s2.597 5.777 5.8 5.777M81.754 57.399c3.203 0 5.8-2.587 5.8-5.777s-2.597-5.778-5.8-5.778c-3.204 0-5.801 2.587-5.801 5.778s2.597 5.777 5.8 5.777"/></svg>
